!!!!SEGMENT: pl-kk--kk-i-3--005-004_anonim--officium-de-assumptione-de-bmv-congaudent-angelorum-chori.krn
!!!cenid: 15xx:573
!!!COM: Anonim
!!!COM-rismID: pe30004985
!!!CDT:
!!!CNT:
!!!OPR: Officium de Assumptione de BMV
!!!OTL: Congaudent angelorum chori
!!!OMV: 004
!!!PDT:
!!!AGN:
!!!YEC: Copyright 2022 Narodowy Instytut Fryderyka Chopina (https://polishscores.org)
!!!YEM: License CC-BY-4.0 (https://creativecommons.org/licenses/by/4.0)
!!!SMS-siglum: PL-Kk
!!!SMS-shelfmark: Kk.I.3
!!!SMS-shelfwork: 005-004 M
!!!SMS-variant:
!!!SMS-altvar:
!!!NIFC-rismSourceID: 1001145493
!!!NIFC-rismChildID: 1001145497
!!!NIFC-islandoraID: pl-kk:1170
!!!URL-pdf-islandora: https://repozytorium.nifc.pl/islandora/object/pl-kk%3A1170/datastream/PDF/view
!!!URL-scan: https://polish.musicsources.pl/pl/lokalizacje/galeria/rekopisy/5919 @EN{Scan on Polish Music Sources Website} @PL{Skany w portalu Dziedzictwo Muzyki Polskiej w otwartym dostępie}
!!!IIIF:
!!!ONB-nifc: UWAGA: Discantus (s. 13r-14v, skan 0015-0017), Tenor (s. 11r-12r, skan 0183-0184), Bassus (s. 9v-11v, skan 0313-0315). Następna część: Diffusa est gratia
!!!AIN: 1 bass 1 soprn 1 tenor
!!!key: d:dor
**kern	**text	**text	**kern	**text	**text	**kern	**text	**text
*group1	*	*	*group1	*	*	*group1	*	*
*part3	*	*	*part2	*	*	*part1	*	*
*staff3	*	*	*staff2	*	*	*staff1	*	*
*I"[Bassus]	*	*	*I"[Tenor]	*	*	*I"[Discantus]	*	*
*I'[B]	*	*	*I'[T]	*	*	*I'[S]	*	*
*Ibass	*	*	*Itenor	*	*	*Isoprn	*	*
*ICvox	*	*	*ICvox	*	*	*ICvox	*	*
*clefF4	*	*	*clefC4	*	*	*clefC3	*	*
*k[]	*	*	*k[]	*	*	*k[]	*	*
*d:dor	*	*	*d:dor	*	*	*d:dor	*	*
*M4/4	*	*	*M4/4	*	*	*M4/4	*	*
*met(C)	*	*	*met(C)	*	*	*met(C)	*	*
=1-	=1-	=1-	=1-	=1-	=1-	=1-	=1-	=1-
!LO:TX:t=P:problem=brak metrum	!	!	!	!	!	!	!	!
1G	Con-	.	1G	[C]on	.	1d	Con-	.
=2-	=2-	=2-	=2-	=2-	=2-	=2-	=2-	=2-
1E	-gau-	.	1G	gau-	.	1e	-gau-	.
=3-	=3-	=3-	=3-	=3-	=3-	=3-	=3-	=3-
1D	-de(n)t	.	1A	-de(n)t	.	1f,>	-de(n)t	.
=4-	=4-	=4-	=4-	=4-	=4-	=4-	=4-	=4-
*2\right	*	*	*	*	*	*2\right	*	*
2G\	an-	.	1G	an-	.	2d/	an-	.
2E/	.	.	.	.	.	1g\	-ge-	.
=5-	=5-	=5-	=5-	=5-	=5-	=5-	=5-	=5-
1F	-ge-	.	1A	-ge-	.	.	.	.
.	.	.	.	.	.	1f\	-lo-	.
=6-	=6-	=6-	=6-	=6-	=6-	=6-	=6-	=6-
1C	-lo-	.	1G	-lo-	.	.	.	.
.	.	.	.	.	.	2e/	-(rum)	.
=7-	=7-	=7-	=7-	=7-	=7-	=7-	=7-	=7-
1D	-r(um)	.	1F	-(rum)	.	1f	cho-	.
=8-	=8-	=8-	=8-	=8-	=8-	=8-	=8-	=8-
1D	cho-	.	1A	cho-	.	1f	-ri	.
=9-	=9-	=9-	=9-	=9-	=9-	=9-	=9-	=9-
1C	-ri	.	1c	-ri	.	1e	glo-	.
=10-	=10-	=10-	=10-	=10-	=10-	=10-	=10-	=10-
1G	glo-	.	1B	glo-	.	1d	-ri-	.
=11-	=11-	=11-	=11-	=11-	=11-	=11-	=11-	=11-
1C	-ri-	.	1c	-ri-	.	1e	-o-	.
=12-	=12-	=12-	=12-	=12-	=12-	=12-	=12-	=12-
1D	-o-	.	1A	-o-	.	2f/	.	.
.	.	.	.	.	.	1d\	-se	.
=13-	=13-	=13-	=13-	=13-	=13-	=13-	=13-	=13-
1E	-se	.	1G	-se	.	.	.	.
.	.	.	.	.	.	2c/	vir-	.
*	*	*	*	*	*	*custos:d	*	*
!LO:LB:g=original	!	!	!	!	!	!LO:LB:g=original	!	!
=14-	=14-	=14-	=14-	=14-	=14-	=14-	=14-	=14-
1D	vir-	.	1F	vir-	.	1d	-gi-	.
=15-	=15-	=15-	=15-	=15-	=15-	=15-	=15-	=15-
!	!	!	!	!	!	!LO:N:vis=1	!	!
1GG	-gi-	.	1G	-gi-	.	0.d;>	-ni	.
=16-	=16-	=16-	=16-	=16-	=16-	=16-	=16-	=16-
!LO:N:vis=1	!	!	!	!	!	!	!	!
0GG;>	-ni	.	1G	-ni	.	.	.	.
=17-	=17-	=17-	=17-	=17-	=17-	=17-	=17-	=17-
!	!	!	!LO:TX:t=P:problem=nadmiarowy takt?	!	!	!	!	!
.	.	.	1G	.	.	.	.	.
*	*	*	*custos:c	*	*	*	*	*
!	!	!	!LO:LB:g=original	!	!	!	!	!
=18-	=18-	=18-	=18-	=18-	=18-	=18-	=18-	=18-
1C	Que	fi-	1c	Que	fi-	1g	Que	fi-
=19-	=19-	=19-	=19-	=19-	=19-	=19-	=19-	=19-
1G	si-	-li-	1B	si-	-li-	1g	si-	-li-
=20-	=20-	=20-	=20-	=20-	=20-	=20-	=20-	=20-
1D,>	-ne	-um	1A	-ne	-um	1f	-ne	-um
=21-	=21-	=21-	=21-	=21-	=21-	=21-	=21-	=21-
2D/	vi-	qui	1d	vi-	qui	1f	vi-	qui
2BB/	-ri-	su-	.	.	.	.	.	.
=22-	=22-	=22-	=22-	=22-	=22-	=22-	=22-	=22-
2C/	-li	-o	1c	-ri-	su-	2e\	-ri-	su-
1c\	com-	.	.	.	.	2f\	.	.
=23-	=23-	=23-	=23-	=23-	=23-	=23-	=23-	=23-
.	.	.	1G	-li	-o	1d	-li	.
2B\	-(m)i-	.	.	.	.	.	.	.
=24-	=24-	=24-	=24-	=24-	=24-	=24-	=24-	=24-
2c\	-x(i)-	mu(n)-	1c	com-	mun-	2e\	co[m]-	-o
2C/	.	-du(m)	.	.	.	1g\	-mi-	mun-
=25-	=25-	=25-	=25-	=25-	=25-	=25-	=25-	=25-
1G	-ti-	cru-	1B	-(m)i-	-du(m)	.	.	.
.	.	.	.	.	.	2g\	x[i]-	-du(m)
*custos:C	*	*	*	*	*	*	*	*
!LO:PB:g=original	!	!	!	!	!	!	!	!
=26-	=26-	=26-	=26-	=26-	=26-	=26-	=26-	=26-
1C	-o-	-o-	1c	-x(i)-	cru-	1e	-ti-	cru-
=27-	=27-	=27-	=27-	=27-	=27-	=27-	=27-	=27-
1D	.	.	1A	-ti-	-o-	2f\	-o-	-o-
.	.	.	.	.	.	1d\	-ne	-ne
=28-	=28-	=28-	=28-	=28-	=28-	=28-	=28-	=28-
1E	-ne	-re	1G	-o-	-re	.	.	.
*	*	*	*	*	*	*custos:c	*	*
!	!	!	!	!	!	!LO:LB:g=original	!	!
.	.	.	.	.	.	2c/	ge-	me-
=29-	=29-	=29-	=29-	=29-	=29-	=29-	=29-	=29-
1D	ge-	me-	1F	-ne	me-	1d	-nu-	-di-
=30-	=30-	=30-	=30-	=30-	=30-	=30-	=30-	=30-
!	!	!	!	!	!	!LO:N:vis=1	!	!
1GG	-nu-	-di-	1G	ge-	.	0.d;>	-it	-cat
=31-	=31-	=31-	=31-	=31-	=31-	=31-	=31-	=31-
!LO:N:vis=1	!	!	!	!	!	!	!	!
0GG;>	-it	-cat	1G	-nu-	-di-	.	.	.
=32-	=32-	=32-	=32-	=32-	=32-	=32-	=32-	=32-
.	.	.	1G	-it	-cat	.	.	.
=33-	=33-	=33-	=33-	=33-	=33-	=33-	=33-	=33-
1F	Nam	In	1F	Nam	In	1f	Nam	In
=34-	=34-	=34-	=34-	=34-	=34-	=34-	=34-	=34-
1D	ip-	ter-	1A	ip-	ter-	1f	ip-	ter-
=35-	=35-	=35-	=35-	=35-	=35-	=35-	=35-	=35-
1C	-sa	-ris	1c	-sa	-ris	1e	-sa	-ris
=36-	=36-	=36-	=36-	=36-	=36-	=36-	=36-	=36-
!	!	!	!	!	!	!LO:TX:t=P:problem=brak dalszego tekstu drugiej zwrotki	!	!
2C/	le-	cu-	1G	le-	cu-	1g	le-	cu-
1G\	-ta-	-i	.	.	.	.	.	.
*	*	*	*custos:A	*	*	*	*	*
!	!	!	!LO:LB:g=original	!	!	!	!	!
=37-	=37-	=37-	=37-	=37-	=37-	=37-	=37-	=37-
.	.	.	1A	-ta-	-i	2e\	-ta-	-i
2F/	.	quon-	.	.	.	2f\	.	.
=38-	=38-	=38-	=38-	=38-	=38-	=38-	=38-	=38-
1G	-tur	-da(m)	1G	-tur	quo(n)-	2d/	-tur	.
.	.	.	.	.	.	1g\	(quod)	.
*custos:D	*	*	*	*	*	*	*	*
!LO:LB:g=original	!	!	!	!	!	!	!	!
=39-	=39-	=39-	=39-	=39-	=39-	=39-	=39-	=39-
1D	(quod)	.	1d	(quod)	-da(m)	.	.	.
.	.	.	.	.	.	2f\	ce-	.
=40-	=40-	=40-	=40-	=40-	=40-	=40-	=40-	=40-
2E/	ce-	Su-	1c	ce-	Su-	2g\	.	.
2C/	-li	-gen-	.	.	.	2e/	-li	.
*	*	*	*	*	*	*custos:f	*	*
!	!	!	!	!	!	!LO:LB:g=original	!	!
=41-	=41-	=41-	=41-	=41-	=41-	=41-	=41-	=41-
1D	ia(m)	-d(as)	1A	-li	-gen-	1f	iam	.
=42-	=42-	=42-	=42-	=42-	=42-	=42-	=42-	=42-
1C	con-	vir-	1c	iam	-das	1e	con	.
=43-	=43-	=43-	=43-	=43-	=43-	=43-	=43-	=43-
!	!	!	!	!	!	!LO:TX:t=P:problem=brak dalszego tekstu do taktu 49	!	!
1G	-ſpi-	-go	1B	con-	Vir-	2d/	.	.
.	.	.	.	.	.	1g\	.	.
=44-	=44-	=44-	=44-	=44-	=44-	=44-	=44-	=44-
1C	-ca-	ma-	1d	-ſpi-	-go	.	.	.
.	.	.	.	.	.	2e\	.	.
=45-	=45-	=45-	=45-	=45-	=45-	=45-	=45-	=45-
1D	-tur	-mil-	1A	-ca-	ma-	2f\	.	.
.	.	.	.	.	.	1d\	.	.
=46-	=46-	=46-	=46-	=46-	=46-	=46-	=46-	=46-
1E,>	.	-las	1G	-t(ur)	-mil-	.	.	.
.	.	.	.	.	.	2c/	.	.
=47-	=47-	=47-	=47-	=47-	=47-	=47-	=47-	=47-
1D	prin-	pre-	1F	prin-	-las	2d/	.	.
.	.	.	.	.	.	2f\	.	.
=48-	=48-	=48-	=48-	=48-	=48-	=48-	=48-	=48-
1E	-ci-	-bu-	1G	-ci-	pre-	1e	.	.
=49-	=49-	=49-	=49-	=49-	=49-	=49-	=49-	=49-
!LO:N:vis=1	!	!	!	!	!	!LO:N:vis=1	!	!
0.C;>	-pem	-it	[y1G	-pe(m)	-bu-	0.e;<	.	.
=50-	=50-	=50-	=50-	=50-	=50-	=50-	=50-	=50-
.	.	.	1G_y	.	-it	.	.	.
=51-	=51-	=51-	=51-	=51-	=51-	=51-	=51-	=51-
.	.	.	1G]	.	.	.	.	.
=52-	=52-	=52-	=52-	=52-	=52-	=52-	=52-	=52-
1G	Qua(m)	Qui	1G	Quam	Qui	1g	Qua(m)	.
=53-	=53-	=53-	=53-	=53-	=53-	=53-	=53-	=53-
2G\	cel-	fi-	1d	cel-	fi-	2g\	cel-	.
2F\	.	-lÿ	.	.	.	1a\	-le-	.
=54-	=54-	=54-	=54-	=54-	=54-	=54-	=54-	=54-
1E	-[l]e-	.	1c	-le-	-lÿ	.	.	.
*	*	*	*	*	*	*custos:g	*	*
!	!	!	!	!	!	!LO:LB:g=original	!	!
.	.	.	.	.	.	2g\	.	.
*custos:D	*	*	*	*	*	*	*	*
!LO:LB:g=original	!	!	!	!	!	!	!	!
=55-	=55-	=55-	=55-	=55-	=55-	=55-	=55-	=55-
1D	-bris	.	1d	-bris	il-	2f\	.	.
.	.	.	.	.	.	2e\	-bris	.
=56-	=56-	=56-	=56-	=56-	=56-	=56-	=56-	=56-
1G	an-	il-	1d	an-	.	2d\	.	.
.	.	.	.	.	.	1g\	an-	.
*	*	*	*clefC3	*	*	*	*	*
*	*	*	*custos:c	*	*	*	*	*
!	!	!	!LO:LB:g=original	!	!	!	!	!
=57-	=57-	=57-	=57-	=57-	=57-	=57-	=57-	=57-
1C	-ge-	-lu-	1c	-ge-	-lu-	.	.	.
.	.	.	.	.	.	2f\	-ge-	.
=58-	=58-	=58-	=58-	=58-	=58-	=58-	=58-	=58-
1D,>	-lis	-is	1A	-(lis)	-is	1f	-lis	.
=59-	=59-	=59-	=59-	=59-	=59-	=59-	=59-	=59-
1F	Ma-	de-	1F	Ma-	de-	1f	Ma-	.
=60-	=60-	=60-	=60-	=60-	=60-	=60-	=60-	=60-
1D	-ri-	-bi-	1A	-ri-	-bi-	1f	-ri-	.
=61-	=61-	=61-	=61-	=61-	=61-	=61-	=61-	=61-
2C/	-a	-tos	1c	-a	-tos	1e	-a	.
1c\	Je-	se	.	.	.	.	.	.
=62-	=62-	=62-	=62-	=62-	=62-	=62-	=62-	=62-
.	.	.	1G	Ie-	se	1d	ie-	.
2B\	-su	.	.	.	.	.	.	.
=63-	=63-	=63-	=63-	=63-	=63-	=63-	=63-	=63-
1A	.	cog-	1c	-ſu	cog-	1c	-ſu	.
=64-	=64-	=64-	=64-	=64-	=64-	=64-	=64-	=64-
1F	ma-	-no(s)-	1A	ma-	-(nos)-	2c\	ma-	.
.	.	.	.	.	.	2d\	-ter	.
=65-	=65-	=65-	=65-	=65-	=65-	=65-	=65-	=65-
2E/	-ter	-cu(n)t	1G	-ter	-cu(n)t	2e\	.	.
2C/	.	.	.	.	.	2e\	cre	.
*	*	*	*	*	*	*custos:d	*	*
!	!	!	!	!	!	!LO:PB:g=original	!	!
=66-	=66-	=66-	=66-	=66-	=66-	=66-	=66-	=66-
!	!	!	!	!	!	!LO:TX:t=P:problem=od tej pory brak tekstu	!	!
1D	cre-	fa-	1F	cre-	fa-	1d	.	.
=67-	=67-	=67-	=67-	=67-	=67-	=67-	=67-	=67-
1GG	-di-	-mu-	1G	-di-	-m(u)-	1d	.	.
=68-	=68-	=68-	=68-	=68-	=68-	=68-	=68-	=68-
!LO:N:vis=1	!	!	!	!	!	!LO:N:vis=1	!	!
0GG;>	-tur	-los	[y1G	-t(ur)	-los	0d;>	.	.
=69-	=69-	=69-	=69-	=69-	=69-	=69-	=69-	=69-
!	!	!	!LO:TX:t=P:problem=zapisane jako trzy semibreves	!	!	!	!	!
.	.	.	1G]	.	.	.	.	.
*custos:G	*	*	*	*	*	*	*	*
!LO:LB:g=original	!	!	!	!	!	!	!	!
=70-	=70-	=70-	=70-	=70-	=70-	=70-	=70-	=70-
*clefF3	*	*	*	*	*	*	*	*
0G	Qua	qua(m)	1G	Qua	Quam	1g	.	.
=71-	=71-	=71-	=71-	=71-	=71-	=71-	=71-	=71-
.	.	.	1d	.	.	1g	.	.
=72-	=72-	=72-	=72-	=72-	=72-	=72-	=72-	=72-
1D	glo-	ſplen-	1f	glo-	splen-	1a	.	.
=73-	=73-	=73-	=73-	=73-	=73-	=73-	=73-	=73-
2F/	.	-di-	1d	-ri-	-di-	2a\	.	.
2G/	.	-da	.	.	.	1g\	.	.
=74-	=74-	=74-	=74-	=74-	=74-	=74-	=74-	=74-
1A	-ri-	po-	1c	-a	-da	.	.	.
.	.	.	.	.	.	2f/	.	.
*	*	*	*custos:d	*	*	*	*	*
!	!	!	!LO:LB:g=original	!	!	!	!	!
=75-	=75-	=75-	=75-	=75-	=75-	=75-	=75-	=75-
1G,>	-a	-lo	1d	in	Po-	1g	.	.
=76-	=76-	=76-	=76-	=76-	=76-	=76-	=76-	=76-
!	!LO:MO:P=in	!	!	!	!	!	!	!
1D	mi-	.	1d	ce-	-lo	2a\	.	.
.	.	.	.	.	.	2g\	.	.
=77-	=77-	=77-	=77-	=77-	=77-	=77-	=77-	=77-
!	!LO:MO:P=ce	!	!	!	!	!	!	!
2G/	-ni-	.	1c	-lis	.	1e	.	.
1A\	-lis	.	.	.	.	.	.	.
=78-	=78-	=78-	=78-	=78-	=78-	=78-	=78-	=78-
.	.	.	1f	iſ-	stel-	1a	.	.
2D/	iſ-	stel-	.	.	.	.	.	.
=79-	=79-	=79-	=79-	=79-	=79-	=79-	=79-	=79-
1A,>	-ta	-la	1e	-ta	-la	1a	.	.
=80-	=80-	=80-	=80-	=80-	=80-	=80-	=80-	=80-
1B	vir-	ma-	1d	vir-	ma-	1f	.	.
*	*	*	*	*	*	*custos:g	*	*
!	!	!	!	!	!	!LO:LB:g=original	!	!
=81-	=81-	=81-	=81-	=81-	=81-	=81-	=81-	=81-
1G	-go	-ris	1d	-go	-ris	1g	.	.
=82-	=82-	=82-	=82-	=82-	=82-	=82-	=82-	=82-
1A	co-	ru-	1c	co-	ru-	2e\	.	.
.	.	.	.	.	.	1a\	.	.
=83-	=83-	=83-	=83-	=83-	=83-	=83-	=83-	=83-
2F/	-li-	-til-	1d	-li-	-til-	.	.	.
2G/	.	.	.	.	.	2g\	.	.
=84-	=84-	=84-	=84-	=84-	=84-	=84-	=84-	=84-
1D	-tur	-lat	1d	-tur	-lat	1f	.	.
*custos:G	*	*	*	*	*	*	*	*
!LO:LB:g=original	!	!	!	!	!	!	!	!
=85-	=85-	=85-	=85-	=85-	=85-	=85-	=85-	=85-
1G	qu-	qu-	1G	qu-	qu-	0g	.	.
=86-	=86-	=86-	=86-	=86-	=86-	=86-	=86-	=86-
1G	-e	-e	1d	-e	-(ae)	.	.	.
=87-	=87-	=87-	=87-	=87-	=87-	=87-	=87-	=87-
1D	do-	om-	1f	do-	Om-	1a	.	.
=88-	=88-	=88-	=88-	=88-	=88-	=88-	=88-	=88-
!LO:TX:t=P:problem=w drugiej linijce brak dokończenia słowa omnium	!	!	!	!	!	!	!	!
2F/	-mi-	-[ni-	1d	-mi-	-ni-	2a\	.	.
2G/	.	.	.	.	.	1g\	.	.
=89-	=89-	=89-	=89-	=89-	=89-	=89-	=89-	=89-
1A	-no	-um]	1c	-no	-u(m)	.	.	.
.	.	.	.	.	.	2f\	.	.
=90-	=90-	=90-	=90-	=90-	=90-	=90-	=90-	=90-
1G	ce-	lu-	1d	ce-	lu-	1g	.	.
=91-	=91-	=91-	=91-	=91-	=91-	=91-	=91-	=91-
2C/	-li	-men	1c	-li	-me(n)	2e/	.	.
1c\	prae-	aſ-	.	.	.	2c/	.	.
=92-	=92-	=92-	=92-	=92-	=92-	=92-	=92-	=92-
.	.	.	1f	pre-	aſ-	1d	.	.
2B\	-bu-	-tro	.	.	.	.	.	.
=93-	=93-	=93-	=93-	=93-	=93-	=93-	=93-	=93-
2c\	-it	.	1e	-bu-	-tro-	1c	.	.
!	!LO:MO:P=hos-	!	!	!	!	!	!	!
2C/	ho-	.	.	.	.	.	.	.
*	*	*	*custos:d	*	*	*	*	*
!	!	!	!LO:LB:g=original	!	!	!	!	!
=94-	=94-	=94-	=94-	=94-	=94-	=94-	=94-	=94-
2G/	.	.	1d	-it	-rum	2B/	.	.
2F/	.	.	.	.	.	2A/	.	.
=95-	=95-	=95-	=95-	=95-	=95-	=95-	=95-	=95-
2E/	.	.	1g	hoſ-	e(t)	2G/	.	.
2C/	.	.	.	.	.	1c\	.	.
=96-	=96-	=96-	=96-	=96-	=96-	=96-	=96-	=96-
!LO:TX:t=P:problem=od tej pory brak tekstu	!	!	!	!	!	!	!	!
!	!LO:MO:P=-pi	!	!	!	!	!	!	!
1D	-spi	.	1f	-pi-	ho-	.	.	.
*	*	*	*	*	*	*custos:B	*	*
!	!	!	!	!	!	!LO:LB:g=original	!	!
.	.	.	.	.	.	2B/	.	.
*custos:C	*	*	*	*	*	*	*	*
!LO:PB:g=original	!	!	!	!	!	!	!	!
=97-	=97-	=97-	=97-	=97-	=97-	=97-	=97-	=97-
1C	.	.	1e	-c(i-	-mi-	2c/	.	.
.	.	.	.	.	.	1g\	.	.
=98-	=98-	=98-	=98-	=98-	=98-	=98-	=98-	=98-
2C/	.	.	1c	-um)	-(num)	.	.	.
2E/	.	.	.	.	.	2g\	.	.
=99-	=99-	=99-	=99-	=99-	=99-	=99-	=99-	=99-
1D	.	.	1d	su-	at-	1f	.	.
=100-	=100-	=100-	=100-	=100-	=100-	=100-	=100-	=100-
2D/	.	.	1f	-i	-q(ue)	2f\	.	.
2F/	.	.	.	.	.	1d\	.	.
=101-	=101-	=101-	=101-	=101-	=101-	=101-	=101-	=101-
1E	.	.	1g	san-	spi-	.	.	.
.	.	.	.	.	.	2c/	.	.
=102-	=102-	=102-	=102-	=102-	=102-	=102-	=102-	=102-
2D/	.	.	1f	-ctiſ-	-ri-	1d	.	.
1A\	.	.	.	.	.	.	.	.
=103-	=103-	=103-	=103-	=103-	=103-	=103-	=103-	=103-
.	.	.	1e	-ſi-	-tu-	1e	.	.
2c\	.	.	.	.	.	.	.	.
=104-	=104-	=104-	=104-	=104-	=104-	=104-	=104-	=104-
2d\	.	.	1d	-mi	-um	1f	.	.
2D/	.	.	.	.	.	.	.	.
=105-	=105-	=105-	=105-	=105-	=105-	=105-	=105-	=105-
1E	.	.	1c	cor-	ge-	1g	.	.
=106-	=106-	=106-	=106-	=106-	=106-	=106-	=106-	=106-
!LO:N:vis=1	!	!	!	!	!	!LO:N:vis=1	!	!
0D;>	.	.	1d	-po-	-nu-	0f;<	.	.
=107-	=107-	=107-	=107-	=107-	=107-	=107-	=107-	=107-
!	!	!	!LO:TX:t=P:problem=zapisane jako dwie semibreves	!	!	!	!	!
!	!	!	!LO:TX:t=P:problem=podwójna kreska pseudotaktowa	!	!	!	!	!
.	.	.	1d	-ris	-it	.	.	.
=108	=108	=108	=108||-	=108||-	=108||-	=108-	=108-	=108-
1G	.	.	1d	Te	Te	1d	.	.
=109-	=109-	=109-	=109-	=109-	=109-	=109-	=109-	=109-
2E/	.	.	1g	ce-	.	1e	.	.
*custos:C	*	*	*	*	*	*	*	*
!LO:LB:g=original	!	!	!	!	!	!	!	!
2C/	.	.	.	.	.	.	.	.
*	*	*	*	*	*	*custos:B	*	*
!	!	!	!	!	!	!LO:LB:g=original	!	!
=110-	=110-	=110-	=110-	=110-	=110-	=110-	=110-	=110-
*	*	*	*	*	*	*clefC1\2	*	*
1E	.	.	1g	-li	can-	2B/	.	.
.	.	.	.	.	.	2c/	.	.
*	*	*	*custos:f	*	*	*	*	*
!	!	!	!LO:LB:g=original	!	!	!	!	!
=111-	=111-	=111-	=111-	=111-	=111-	=111-	=111-	=111-
1D	.	.	1f	Re-	-tu	1d	.	.
=112-	=112-	=112-	=112-	=112-	=112-	=112-	=112-	=112-
2C/	.	.	1g	.	me-	1e	.	.
2c\	.	.	.	.	.	.	.	.
=113-	=113-	=113-	=113-	=113-	=113-	=113-	=113-	=113-
2A/	.	.	1a	.	.	1c	.	.
1F\	.	.	.	.	.	.	.	.
=114-	=114-	=114-	=114-	=114-	=114-	=114-	=114-	=114-
.	.	.	1f	-gi-	-lo-	2c/	.	.
2D/	.	.	.	.	.	2d/	.	.
=115-	=115-	=115-	=115-	=115-	=115-	=115-	=115-	=115-
*lig	*	*	*	*	*	*	*	*
1A	.	.	1e	.	.	2A/	.	.
.	.	.	.	.	.	1a\	.	.
=116-	=116-	=116-	=116-	=116-	=116-	=116-	=116-	=116-
1B	.	.	1d	-na	-do	.	.	.
.	.	.	.	.	.	2g\	.	.
*Xlig	*	*	*	*	*	*	*	*
=117-	=117-	=117-	=117-	=117-	=117-	=117-	=117-	=117-
1A	.	.	1e	hec	su-	1a	.	.
=118-	=118-	=118-	=118-	=118-	=118-	=118-	=118-	=118-
1G	.	.	1g	ple-	-per	1d	.	.
=119-	=119-	=119-	=119-	=119-	=119-	=119-	=119-	=119-
1D	.	.	1f	-bi-	e-	1d	.	.
=120-	=120-	=120-	=120-	=120-	=120-	=120-	=120-	=120-
2E/	.	.	1e	-cu-	-the-	1g	.	.
2C/	.	.	.	.	.	.	.	.
=121-	=121-	=121-	=121-	=121-	=121-	=121-	=121-	=121-
1F	.	.	1c	-la	-ra	1a	.	.
*	*	*	*	*	*	*custos:f	*	*
!	!	!	!	!	!	!LO:LB:g=original	!	!
=122-	=122-	=122-	=122-	=122-	=122-	=122-	=122-	=122-
2D/	.	.	1d	pys	V-	2f/	.	.
1G\	.	.	.	.	.	2g\	.	.
=123-	=123-	=123-	=123-	=123-	=123-	=123-	=123-	=123-
.	.	.	1f	.	-na	1d	.	.
*custos:F	*	*	*	*	*	*	*	*
!LO:LB:g=original	!	!	!	!	!	!	!	!
2F/	.	.	.	.	.	.	.	.
=124-	=124-	=124-	=124-	=124-	=124-	=124-	=124-	=124-
2E/	.	.	1g	.	.	1e	.	.
2C/	.	.	.	.	.	.	.	.
=125-	=125-	=125-	=125-	=125-	=125-	=125-	=125-	=125-
1D	.	.	1f	con-	cu(m)	1f	.	.
=126-	=126-	=126-	=126-	=126-	=126-	=126-	=126-	=126-
2C/	.	.	1e	-ce-	an-	1g	.	.
2c\	.	.	.	.	.	.	.	.
=127-	=127-	=127-	=127-	=127-	=127-	=127-	=127-	=127-
2B\	.	.	1d	-le-	-ge-	2d/	.	.
2G/	.	.	.	.	.	2g\	.	.
=128-	=128-	=128-	=128-	=128-	=128-	=128-	=128-	=128-
1A	.	.	1c	-brat	-lis	1e	.	.
=129-	=129-	=129-	=129-	=129-	=129-	=129-	=129-	=129-
1D	.	.	1d	men-	e-	1f	.	.
=130-	=130-	=130-	=130-	=130-	=130-	=130-	=130-	=130-
!LO:TX:t=P:LO:N:vis=1:problem	!	!	!	!	!	!LO:N:vis=1	!	!
[y1D;>	.	.	1d	-ti-	-le-	0f;>	.	.
=131-	=131-	=131-	=131-	=131-	=131-	=131-	=131-	=131-
1D;>]	.	.	1d	-b(us)	-uat	.	.	.
*	*	*	*custos:d	*	*	*	*	*
!	!	!	!LO:LB:g=original	!	!	!	!	!
=132-	=132-	=132-	=132-	=132-	=132-	=132-	=132-	=132-
1D	.	.	1d	Te	Te	1d	.	.
=133-	=133-	=133-	=133-	=133-	=133-	=133-	=133-	=133-
2D/	.	.	1f	li-	ple-	2d/	.	.
1F\	.	.	.	.	.	1c/	.	.
=134-	=134-	=134-	=134-	=134-	=134-	=134-	=134-	=134-
.	.	.	1c	-bri	-bis	.	.	.
2F/	.	.	.	.	.	1f\	.	.
=135-	=135-	=135-	=135-	=135-	=135-	=135-	=135-	=135-
1D	.	.	1d	Vir-	se-	.	.	.
*	*	*	*	*	*	*custos:f	*	*
!	!	!	!	!	!	!LO:PB:g=original	!	!
.	.	.	.	.	.	2f/	.	.
*custos:C	*	*	*	*	*	*	*	*
!LO:LB:g=original	!	!	!	!	!	!	!	!
=136-	=136-	=136-	=136-	=136-	=136-	=136-	=136-	=136-
2C/	.	.	1e	-go	-xus	1e	.	.
2c\	.	.	.	.	.	.	.	.
=137-	=137-	=137-	=137-	=137-	=137-	=137-	=137-	=137-
2A\	.	.	1f	con-	ſe-	1c	.	.
2A\	.	.	.	.	.	.	.	.
=138-	=138-	=138-	=138-	=138-	=138-	=138-	=138-	=138-
1G	.	.	1g	-ci-	-qui-	1d	.	.
=139-	=139-	=139-	=139-	=139-	=139-	=139-	=139-	=139-
1E	.	.	1g	-nu(n)t	-t(ur)	1g	.	.
=140-	=140-	=140-	=140-	=140-	=140-	=140-	=140-	=140-
1F	.	.	1a	pro-	v-	1f	.	.
=141-	=141-	=141-	=141-	=141-	=141-	=141-	=141-	=141-
1D	.	.	1f	-phe-	-tri-	1f	.	.
=142-	=142-	=142-	=142-	=142-	=142-	=142-	=142-	=142-
2E/	.	.	1g	-ta-	-u(s)-	2e/	.	.
2C/	.	.	.	.	.	1g\	.	.
=143-	=143-	=143-	=143-	=143-	=143-	=143-	=143-	=143-
2G/	.	.	1d	-(rum)	-q(ue)	.	.	.
2F/	.	.	.	.	.	2a/	.	.
=144-	=144-	=144-	=144-	=144-	=144-	=144-	=144-	=144-
1G	.	.	1d	cho-	vi-	1g	.	.
=145-	=145-	=145-	=145-	=145-	=145-	=145-	=145-	=145-
2C/	.	.	1e	-rus	-tam	1e	.	.
2c\	.	.	.	.	.	.	.	.
=146-	=146-	=146-	=146-	=146-	=146-	=146-	=146-	=146-
2A\	.	.	1f	iu-	di-	1c	.	.
2A\	.	.	.	.	.	.	.	.
=147-	=147-	=147-	=147-	=147-	=147-	=147-	=147-	=147-
1G	.	.	1g	-bi-	-li-	1d	.	.
*custos:E	*	*	*custos:g	*	*	*	*	*
!LO:LB:g=original	!	!	!LO:LB:g=original	!	!	!	!	!
=148-	=148-	=148-	=148-	=148-	=148-	=148-	=148-	=148-
1E	.	.	1g	-lat	-gens	1g	.	.
=149-	=149-	=149-	=149-	=149-	=149-	=149-	=149-	=149-
1F	.	.	1a	sa-	vir-	1f	.	.
*	*	*	*	*	*	*custos:f	*	*
!	!	!	!	!	!	!LO:LB:g=original	!	!
=150-	=150-	=150-	=150-	=150-	=150-	=150-	=150-	=150-
1D	.	.	1f	-cer-	-gi-	1f	.	.
=151-	=151-	=151-	=151-	=151-	=151-	=151-	=151-	=151-
2E/	.	.	1g	-do-	-na-	2e/	.	.
2C/	.	.	.	.	.	1g\	.	.
=152-	=152-	=152-	=152-	=152-	=152-	=152-	=152-	=152-
2G/	.	.	1d	-tu(m)	-lem	.	.	.
2F/	.	.	.	.	.	2a\	.	.
=153-	=153-	=153-	=153-	=153-	=153-	=153-	=153-	=153-
1E	.	.	1g	ap-	ce-	2g\	.	.
.	.	.	.	.	.	2e/	.	.
=154-	=154-	=154-	=154-	=154-	=154-	=154-	=154-	=154-
2D/	.	.	1f	-po-	-li-	2f/	.	.
2d\	.	.	.	.	.	2d/	.	.
=155-	=155-	=155-	=155-	=155-	=155-	=155-	=155-	=155-
2c\	.	.	1e	-ſto-	-co-	1e	.	.
1A\	.	.	.	.	.	.	.	.
=156-	=156-	=156-	=156-	=156-	=156-	=156-	=156-	=156-
.	.	.	1c	-li	-las	2e/	.	.
1F\	.	.	.	.	.	1a\	.	.
=157-	=157-	=157-	=157-	=157-	=157-	=157-	=157-	=157-
.	.	.	1d	cri-	in	.	.	.
2G/	.	.	.	.	.	2g/	.	.
=158-	=158-	=158-	=158-	=158-	=158-	=158-	=158-	=158-
2D/	.	.	1f	-sti-	caſ-	2f/	.	.
2F/	.	.	.	.	.	1d/	.	.
=159-	=159-	=159-	=159-	=159-	=159-	=159-	=159-	=159-
1E	.	.	1g	-(que)	-ti-	.	.	.
.	.	.	.	.	.	2c/	.	.
=160-	=160-	=160-	=160-	=160-	=160-	=160-	=160-	=160-
2D/	.	.	1f	.	.	1d	.	.
*custos:d	*	*	*	*	*	*	*	*
!LO:PB:g=original	!	!	!	!	!	!	!	!
2d\	.	.	.	.	.	.	.	.
=161-	=161-	=161-	=161-	=161-	=161-	=161-	=161-	=161-
2A/	.	.	1e	mar-	-mo-	2e/	.	.
*	*	*	*	*	*	*custos:a	*	*
!	!	!	!	!	!	!LO:LB:g=original	!	!
2c\	.	.	.	.	.	1a\	.	.
=162-	=162-	=162-	=162-	=162-	=162-	=162-	=162-	=162-
1B	.	.	1d	-ti-	-ni-	.	.	.
.	.	.	.	.	.	2g\	.	.
=163-	=163-	=163-	=163-	=163-	=163-	=163-	=163-	=163-
1A	.	.	1c	-res	-a	1a	.	.
=164-	=164-	=164-	=164-	=164-	=164-	=164-	=164-	=164-
2F/	.	.	1d	pre-	e-	2a\	.	.
1G\	.	.	.	.	.	1g\	.	.
=165-	=165-	=165-	=165-	=165-	=165-	=165-	=165-	=165-
.	.	.	1d	-di-	-mu-	.	.	.
!LO:N:vis=2	!	!	!	!	!	!	!	!
4F/L	.	.	.	.	.	2g\	.	.
!LO:N:vis=2	!	!	!	!	!	!	!	!
4E/J	.	.	.	.	.	.	.	.
=166-	=166-	=166-	=166-	=166-	=166-	=166-	=166-	=166-
!	!	!	!LO:TX:t=P:problem=podwójna kreska pseudotaktowa	!	!	!	!	!
[y1D	.	.	1d	-ca(n)t	-lans	1f;>	.	.
*	*	*	*custos:f	*	*	*	*	*
!	!	!	!LO:PB:g=original	!	!	!	!	!
=167	=167	=167	=167||-	=167||-	=167||-	=167	=167	=167
!	!	!	!LO:TX:t=P:problem=brakująca pauza	!	!	!	!	!
1D;>]	.	.	1ryy	.	.	1f;>	.	.
=168-	=168-	=168-	=168-	=168-	=168-	=168-	=168-	=168-
1F	.	.	1f	Ec-	.	1f	.	.
=169-	=169-	=169-	=169-	=169-	=169-	=169-	=169-	=169-
2D/	.	.	1f	-cleſ-	.	1f	.	.
2F/	.	.	.	.	.	.	.	.
=170-	=170-	=170-	=170-	=170-	=170-	=170-	=170-	=170-
2C/	.	.	1g	.	.	1e	.	.
2c\	.	.	.	.	.	.	.	.
*custos:A	*	*	*	*	*	*	*	*
!LO:LB:g=original	!	!	!	!	!	!	!	!
=171-	=171-	=171-	=171-	=171-	=171-	=171-	=171-	=171-
2A/	.	.	1a	-i-	.	2c/	.	.
2F/	.	.	.	.	.	2A/	.	.
=172-	=172-	=172-	=172-	=172-	=172-	=172-	=172-	=172-
1G	.	.	1g	-a	.	2B/	.	.
.	.	.	.	.	.	2G/	.	.
=173-	=173-	=173-	=173-	=173-	=173-	=173-	=173-	=173-
2A/	.	.	1a	er-	.	1d	.	.
2d\	.	.	.	.	.	.	.	.
*	*	*	*	*	*	*custos:d	*	*
!	!	!	!	!	!	!LO:LB:g=original	!	!
=174-	=174-	=174-	=174-	=174-	=174-	=174-	=174-	=174-
2B\	.	.	1g	-go	.	2d/	.	.
2c\	.	.	.	.	.	1c/	.	.
=175-	=175-	=175-	=175-	=175-	=175-	=175-	=175-	=175-
2A/	.	.	1a	.	.	.	.	.
2F/	.	.	.	.	.	2c/	.	.
=176-	=176-	=176-	=176-	=176-	=176-	=176-	=176-	=176-
1G	.	.	1g	cunc-	.	1B	.	.
=177-	=177-	=177-	=177-	=177-	=177-	=177-	=177-	=177-
2G/	.	.	1d	-ta	.	1d	.	.
2F/	.	.	.	.	.	.	.	.
=178-	=178-	=178-	=178-	=178-	=178-	=178-	=178-	=178-
2E/	.	.	1g	te	.	1e	.	.
2C/	.	.	.	.	.	.	.	.
=179-	=179-	=179-	=179-	=179-	=179-	=179-	=179-	=179-
1D	.	.	1f	cor-	.	1d	.	.
=180-	=180-	=180-	=180-	=180-	=180-	=180-	=180-	=180-
2C/	.	.	1e	-di-	.	1g	.	.
1c\	.	.	.	.	.	.	.	.
=181-	=181-	=181-	=181-	=181-	=181-	=181-	=181-	=181-
.	.	.	1c	-b(us)	.	1g	.	.
2c\	.	.	.	.	.	.	.	.
=182-	=182-	=182-	=182-	=182-	=182-	=182-	=182-	=182-
2B\	.	.	1d	te-	.	1g	.	.
*custos:G	*	*	*	*	*	*	*	*
!LO:LB:g=original	!	!	!	!	!	!	!	!
2G/	.	.	.	.	.	.	.	.
=183-	=183-	=183-	=183-	=183-	=183-	=183-	=183-	=183-
1A	.	.	1f	-q(ue)	.	1f	.	.
=184-	=184-	=184-	=184-	=184-	=184-	=184-	=184-	=184-
2G/	.	.	1g	car-	.	2d/	.	.
2E/	.	.	.	.	.	2g\	.	.
*	*	*	*custos:f	*	*	*	*	*
!	!	!	!LO:LB:g=original	!	!	!	!	!
=185-	=185-	=185-	=185-	=185-	=185-	=185-	=185-	=185-
2F/	.	.	1f	-mi-	.	1a	.	.
2D/	.	.	.	.	.	.	.	.
=186-	=186-	=186-	=186-	=186-	=186-	=186-	=186-	=186-
2E/	.	.	1e	-ni-	.	1g	.	.
2C/	.	.	.	.	.	.	.	.
=187-	=187-	=187-	=187-	=187-	=187-	=187-	=187-	=187-
1G	.	.	1d	-b(us)	.	1g	.	.
=188-	=188-	=188-	=188-	=188-	=188-	=188-	=188-	=188-
1A	.	.	1c	.	.	2e/	.	.
*	*	*	*	*	*	*custos:c	*	*
!	!	!	!	!	!	!LO:LB:g=original	!	!
.	.	.	.	.	.	2c/	.	.
=189-	=189-	=189-	=189-	=189-	=189-	=189-	=189-	=189-
1G	.	.	1d	ve-	.	1g	.	.
=190-	=190-	=190-	=190-	=190-	=190-	=190-	=190-	=190-
!LO:N:vis=1	!	!	!	!	!	!LO:N:vis=1	!	!
0G;>	.	.	1d	-ne-	.	0g;<	.	.
=191-	=191-	=191-	=191-	=191-	=191-	=191-	=191-	=191-
!LO:TX:t=P:problem=podwójna kreska pseudotaktowa	!	!	!LO:TX:t=P:problem=podwójna kreska pseudotaktowa	!	!	!	!	!
.	.	.	1d	-ra(n)s	.	.	.	.
=192||-	=192||-	=192||-	=192||-	=192||-	=192||-	=192	=192	=192
1F	.	.	1f	Ti-	.	1f	.	.
=193-	=193-	=193-	=193-	=193-	=193-	=193-	=193-	=193-
2D/	.	.	1f	-bi	.	1f	.	.
2F/	.	.	.	.	.	.	.	.
=194-	=194-	=194-	=194-	=194-	=194-	=194-	=194-	=194-
2C/	.	.	1g	.	.	1e	.	.
2c\	.	.	.	.	.	.	.	.
=195-	=195-	=195-	=195-	=195-	=195-	=195-	=195-	=195-
2A/	.	.	1a	.	.	1f	.	.
*custos:F	*	*	*	*	*	*	*	*
!LO:LB:g=original	!	!	!	!	!	!	!	!
2F/	.	.	.	.	.	.	.	.
=196-	=196-	=196-	=196-	=196-	=196-	=196-	=196-	=196-
1G	.	.	1g	su-	.	2d/	.	.
.	.	.	.	.	.	1g\	.	.
=197-	=197-	=197-	=197-	=197-	=197-	=197-	=197-	=197-
1D	.	.	1a	-a(m)	.	.	.	.
.	.	.	.	.	.	2f/	.	.
=198-	=198-	=198-	=198-	=198-	=198-	=198-	=198-	=198-
2E/	.	.	1g	ma-	.	2g/	.	.
2C/	.	.	.	.	.	1e\	.	.
=199-	=199-	=199-	=199-	=199-	=199-	=199-	=199-	=199-
2c\	.	.	1a	-ni-	.	.	.	.
2F/	.	.	.	.	.	2f/	.	.
=200-	=200-	=200-	=200-	=200-	=200-	=200-	=200-	=200-
1G	.	.	1g	-feſ-	.	2d/	.	.
.	.	.	.	.	.	1g\	.	.
=201-	=201-	=201-	=201-	=201-	=201-	=201-	=201-	=201-
1d	.	.	1d	-tat	.	.	.	.
.	.	.	.	.	.	2f/	.	.
*	*	*	*	*	*	*custos:g	*	*
!	!	!	!	!	!	!LO:PB:g=original	!	!
=202-	=202-	=202-	=202-	=202-	=202-	=202-	=202-	=202-
1G	.	.	1g	de-	.	1g	.	.
=203-	=203-	=203-	=203-	=203-	=203-	=203-	=203-	=203-
1D	.	.	1f	-vo-	.	1a	.	.
=204-	=204-	=204-	=204-	=204-	=204-	=204-	=204-	=204-
1E	.	.	1e	-ci-	.	1g	.	.
=205-	=205-	=205-	=205-	=205-	=205-	=205-	=205-	=205-
1A	.	.	1c	-o-	.	2e/	.	.
.	.	.	.	.	.	2f/	.	.
*	*	*	*custos:d	*	*	*	*	*
!	!	!	!LO:LB:g=original	!	!	!	!	!
=206-	=206-	=206-	=206-	=206-	=206-	=206-	=206-	=206-
1G	.	.	1d	-nem	.	1g	.	.
=207-	=207-	=207-	=207-	=207-	=207-	=207-	=207-	=207-
1G	.	.	1d	pre-	.	1g	.	.
=208-	=208-	=208-	=208-	=208-	=208-	=208-	=208-	=208-
1F	.	.	1f	-ca-	.	1a	.	.
=209-	=209-	=209-	=209-	=209-	=209-	=209-	=209-	=209-
1A	.	.	1e	-tu	.	2a\	.	.
*	*	*	*	*	*	*clefC3	*	*
.	.	.	.	.	.	2AM</	.	.
*custos:G	*	*	*	*	*	*	*	*
!LO:LB:g=original	!	!	!	!	!	!	!	!
=210-	=210-	=210-	=210-	=210-	=210-	=210-	=210-	=210-
1G	.	.	1g	tu	.	1B	.	.
=211-	=211-	=211-	=211-	=211-	=211-	=211-	=211-	=211-
1F	.	.	1a	su-	.	1c	.	.
=212-	=212-	=212-	=212-	=212-	=212-	=212-	=212-	=212-
1D	.	.	1f	-pli-	.	1d	.	.
=213-	=213-	=213-	=213-	=213-	=213-	=213-	=213-	=213-
2E/	.	.	1e	.	.	2B/	.	.
2C/	.	.	.	.	.	1c\	.	.
=214-	=214-	=214-	=214-	=214-	=214-	=214-	=214-	=214-
1G	.	.	1d	-ci	.	.	.	.
.	.	.	.	.	.	2B/	.	.
=215-	=215-	=215-	=215-	=215-	=215-	=215-	=215-	=215-
2C/	.	.	1e	im-	.	1c	.	.
2c\	.	.	.	.	.	.	.	.
*	*	*	*	*	*	*clefC2	*	*
*	*	*	*	*	*	*custos:c	*	*
!	!	!	!	!	!	!LO:LB:g=original	!	!
=216-	=216-	=216-	=216-	=216-	=216-	=216-	=216-	=216-
2A/	.	.	1f	-plo-	.	1c	.	.
2F/	.	.	.	.	.	.	.	.
=217-	=217-	=217-	=217-	=217-	=217-	=217-	=217-	=217-
1G	.	.	1d	-ra(n)s	.	1g	.	.
=218-	=218-	=218-	=218-	=218-	=218-	=218-	=218-	=218-
1A	.	.	1c	.	.	1e	.	.
=219-	=219-	=219-	=219-	=219-	=219-	=219-	=219-	=219-
2D/	.	.	1d	Ma-	.	2f/	.	.
2G/	.	.	.	.	.	2g\	.	.
=220-	=220-	=220-	=220-	=220-	=220-	=220-	=220-	=220-
2F/	.	.	1d	-ri-	.	2a\	.	.
2G/	.	.	.	.	.	2g\	.	.
=221-	=221-	=221-	=221-	=221-	=221-	=221-	=221-	=221-
!	!	!	!LO:TX:t=P:problem=podwójna kreska pseudotaktowa	!	!	!LO:N:vis=1	!	!
1D	.	.	1d	-a	.	0f;>	.	.
=222	=222	=222	=222||-	=222||-	=222||-	=222-	=222-	=222-
!	!	!	!LO:TX:t=P:problem=brakująca pauza	!	!	!	!	!
1D;>	.	.	1ryy	.	.	.	.	.
*custos:D	*	*	*	*	*	*	*	*
!LO:PB:g=original	!	!	!	!	!	!	!	!
=223-	=223-	=223-	=223-	=223-	=223-	=223-	=223-	=223-
1D	.	.	1d	Vt	.	1a	.	.
=224-	=224-	=224-	=224-	=224-	=224-	=224-	=224-	=224-
1D	.	.	1f	si-	.	1a	.	.
=225-	=225-	=225-	=225-	=225-	=225-	=225-	=225-	=225-
2E/	.	.	1e	-bi	.	2g\	.	.
2C/	.	.	.	.	.	2e/	.	.
*	*	*	*custos:g	*	*	*	*	*
!	!	!	!LO:LB:g=original	!	!	!	!	!
=226-	=226-	=226-	=226-	=226-	=226-	=226-	=226-	=226-
1G	.	.	1g	au-	.	1d	.	.
=227-	=227-	=227-	=227-	=227-	=227-	=227-	=227-	=227-
1F	.	.	1a	-xi-	.	1f	.	.
=228-	=228-	=228-	=228-	=228-	=228-	=228-	=228-	=228-
1D	.	.	1f	-li-	.	1a	.	.
*	*	*	*	*	*	*custos:a	*	*
!	!	!	!	!	!	!LO:LB:g=original	!	!
=229-	=229-	=229-	=229-	=229-	=229-	=229-	=229-	=229-
1D	.	.	1f	-um	.	1a	.	.
=230-	=230-	=230-	=230-	=230-	=230-	=230-	=230-	=230-
1D	.	.	1d	cir-	.	1a	.	.
=231-	=231-	=231-	=231-	=231-	=231-	=231-	=231-	=231-
1D	.	.	1f	-ca	.	1a	.	.
=232-	=232-	=232-	=232-	=232-	=232-	=232-	=232-	=232-
2E/	.	.	1e	criſ-	.	2g\	.	.
2C/	.	.	.	.	.	2e/	.	.
=233-	=233-	=233-	=233-	=233-	=233-	=233-	=233-	=233-
1G	.	.	1g	-tu(m)	.	1d	.	.
=234-	=234-	=234-	=234-	=234-	=234-	=234-	=234-	=234-
1F	.	.	1a	do-	.	1f	.	.
=235-	=235-	=235-	=235-	=235-	=235-	=235-	=235-	=235-
1D	.	.	1f	-mi-	.	1f	.	.
=236-	=236-	=236-	=236-	=236-	=236-	=236-	=236-	=236-
2C/	.	.	1e	.	.	2g\	.	.
1c\	.	.	.	.	.	2e/	.	.
=237-	=237-	=237-	=237-	=237-	=237-	=237-	=237-	=237-
.	.	.	1d	-nu(m)	.	2f/	.	.
*custos:B	*	*	*	*	*	*	*	*
!LO:LB:g=original	!	!	!	!	!	!	!	!
2B\	.	.	.	.	.	2g\	.	.
=238-	=238-	=238-	=238-	=238-	=238-	=238-	=238-	=238-
1A	.	.	1e	eſ-	.	1a	.	.
=239-	=239-	=239-	=239-	=239-	=239-	=239-	=239-	=239-
1E	.	.	1e	-ſe	.	1g	.	.
=240-	=240-	=240-	=240-	=240-	=240-	=240-	=240-	=240-
1F	.	.	1c	dig-	.	1a	.	.
=241-	=241-	=241-	=241-	=241-	=241-	=241-	=241-	=241-
1E	.	.	1e	-ne-	.	1g	.	.
=242-	=242-	=242-	=242-	=242-	=242-	=242-	=242-	=242-
2C/	.	.	1g	-ris	.	1e	.	.
1c\	.	.	.	.	.	.	.	.
*	*	*	*custos:f	*	*	*	*	*
!	!	!	!LO:LB:g=original	!	!	!	!	!
=243-	=243-	=243-	=243-	=243-	=243-	=243-	=243-	=243-
.	.	.	1f	per	.	1d	.	.
2B\	.	.	.	.	.	.	.	.
*	*	*	*	*	*	*custos:c	*	*
!	!	!	!	!	!	!LO:LB:g=original	!	!
=244-	=244-	=244-	=244-	=244-	=244-	=244-	=244-	=244-
1c	.	.	1e	.	.	2c/	.	.
.	.	.	.	.	.	2g\	.	.
=245-	=245-	=245-	=245-	=245-	=245-	=245-	=245-	=245-
1F	.	.	1f	e-	.	1a	.	.
=246-	=246-	=246-	=246-	=246-	=246-	=246-	=246-	=246-
1G	.	.	[1dl	-(u)m	.	1g	.	.
=247-	=247-	=247-	=247-	=247-	=247-	=247-	=247-	=247-
2F/	.	.	1d_	.	.	2a\	.	.
1B-X\	.	.	.	.	.	2f/	.	.
=248-	=248-	=248-	=248-	=248-	=248-	=248-	=248-	=248-
.	.	.	1d_	.	.	2g\	.	.
2A\	.	.	.	.	.	2a\	.	.
=249-	=249-	=249-	=249-	=249-	=249-	=249-	=249-	=249-
2G/	.	.	1d_	.	.	2d/	.	.
2F/	.	.	.	.	.	2a\	.	.
=250-	=250-	=250-	=250-	=250-	=250-	=250-	=250-	=250-
1G	.	.	1d_	.	.	1g	.	.
=251-	=251-	=251-	=251-	=251-	=251-	=251-	=251-	=251-
1D;>	.	.	1d_	.	.	1f;>	.	.
=252-	=252-	=252-	=252-	=252-	=252-	=252-	=252-	=252-
1D;>	.	.	1d]	.	.	1f;>	.	.
=-	=-	=-	=-	=-	=-	=-	=-	=-
*-	*-	*-	*-	*-	*-	*-	*-	*-
!!!system-decoration: [(g1)]
!!!RDF**kern: l = terminal long
!!!RDF**kern: > = above
!!!RDF**kern: < = below
!!!ENC: Filip Voros
!!!END: 2021-12-25
!!!EED: Jędrzej Mróz
!!!EEV: 2021-12-30
